public/assets/images/border.svg

<svg width="110" height="4" viewBox="0 0 110 4" fill="none" xmlns="http://www.w3.org/2000/svg">
<path d="M105.2 3.39995C101.4 3.19995 97.5 3.09995 93.7 3.09995C92.3 3.09995 90.9 2.99995 89.5 3.19995C87.8 3.39995 86.1 2.99995 84.5 2.99995C77.6 2.89995 70.7 2.89995 63.9 2.99995C59.6 2.99995 55.4 3.19995 51.1 3.09995C50 3.09995 49.1 3.39995 48 3.49995C45.9 3.69995 43.9 3.19995 41.8 3.29995C40.6 3.29995 39.5 3.69995 38.4 3.59995C34.2 3.39995 30.1 3.59995 26 3.69995C20 3.69995 14.1 3.79995 8.09998 3.99995C6.69998 3.99995 5.29998 3.99995 3.99998 3.69995C2.39998 3.39995 1.09998 2.49995 0.0999803 1.39995C-0.20002 0.999945 0.19998 0.799945 0.69998 0.699945C1.49998 0.499945 2.19998 0.799945 2.89998 0.799945C7.99998 0.699945 13.1 0.499945 18.2 0.499945C23.5 0.399945 28.8 0.499945 34.1 0.399945C37.1 0.399945 40.1 0.299945 43.1 0.299945C51.4 0.299945 59.6 -0.100055 67.9 0.0999453C71.6 0.199945 75.4 0.199945 79.1 0.199945C81.6 0.199945 84.1 -5.46873e-05 86.6 0.499945C87.2 0.599945 88 0.0999453 88.7 0.0999453C95 0.0999453 101.4 -0.200055 107.7 0.899945C108 0.999945 108.5 0.999945 108.9 0.999945C109.3 0.999945 109.5 1.19995 109.6 1.49995C109.7 1.79995 109.8 1.99995 109.4 2.29995C108.4 3.39995 106.9 3.49995 105.2 3.39995Z" fill="#633FBC"/>
</svg>

<svg xmlns="http://www.w3.org/2000/svg" viewBox="0 0 110 4" preserveAspectRatio="none"><path d="M105.2 3.4c-3.8-.2-7.7-.3-11.5-.3-1.4 0-2.8-.1-4.2.1-1.7.2-3.4-.2-5-.2-6.9-.1-13.8-.1-20.6 0-4.3 0-8.5.2-12.8.1-1.1 0-2 .3-3.1.4-2.1.2-4.1-.3-6.2-.2-1.2 0-2.3.4-3.4.3-4.2-.2-8.3 0-12.4.1-6 0-11.9.1-17.9.3C6.7 4 5.3 4 4 3.7 2.4 3.4 1.1 2.5.1 1.4-.2 1 .2.8.7.7c.8-.2 1.5.1 2.2.1C8 .7 13.1.5 18.2.5 23.5.4 28.8.5 34.1.4c3 0 6-.1 9-.1 8.3 0 16.5-.4 24.8-.2 3.7.1 7.5.1 11.2.1 2.5 0 5-.2 7.5.3.6.1 1.4-.4 2.1-.4 6.3 0 12.7-.3 19 .8.3.1.8.1 1.2.1.4 0 .6.2.7.5.1.3.2.5-.2.8-1 1.1-2.5 1.2-4.2 1.1z" fill="#00bed7"/></svg>
